!!!!SEGMENT: Ver2011-Victime_pascali_laudes.krn
!!!id: Ver2011
!!!AGN: Motet
!!!SCT: Slim (1972)
!!!voices: 4
!!!COM: Philippe Verdelot
!!!OTL: Victime pascali laudes
**kern	**kern	**kern	**kern
*part4	*part3	*part2	*part1
*staff4	*staff3	*staff2	*staff1
*I"Bassus	*I"Tenor	*I"Altus	*I"Superius
*I'B	*I'T	*I'A	*I'S
*clefF4	*clefGv2	*clefGv2	*clefG2
*k[b-]	*k[b-]	*k[b-]	*k[b-]
*F:	*F:	*F:	*F:
*M2/1	*M2/1	*M2/1	*M2/1
*met(C|)	*met(C|)	*met(C|)	*met(C|)
!!Section: Prima pars: Victime pascali laudes
!!!OMD: Prima pars: Victime pascali laudes
=1	=1	=1	=1
0G	0r	0r	0r
=2	=2	=2	=2
1F	1r	0r	0r
1G	[1G	.	.
=3	=3	=3	=3
1B-y	1G]	0r	0r
1c	1F	.	.
=4	=4	=4	=4
1.B-y	1G	0d	0g
.	1B-y	.	.
4A	.	.	.
4G	.	.	.
=5	=5	=5	=5
1A	1c	1c	1f
[1G	[1B-y	[1d	1g
=6	=6	=6	=6
1G]	2B-]	1d]	1b-y
.	4A	.	.
.	4G	.	.
1r	1A	1f	1cc
=7	=7	=7	=7
0r	1G	1g	1.b-y
.	1r	2d	.
.	.	[2f	4a
.	.	.	4g
=8	=8	=8	=8
2r	0r	2f]	1a
1d	.	4e	.
.	.	4d	.
.	.	1e	1g
2c	.	.	.
=9	=9	=9	=9
2.B-y	2r	1d	0r
.	1d	.	.
8AL	.	.	.
8GJ	.	.	.
2F	.	2r	.
2F	2c	[2a	.
=10	=10	=10	=10
1G	2.B-y	2a]	2r
.	.	2g	1dd
.	8AL	.	.
.	8GJ	.	.
1D	1A	1f	.
.	.	.	2cc
=11	=11	=11	=11
1G	2G	1g	1b-y
.	1d	.	.
1A	.	2f	1cc
.	2c	[2e	.
=12	=12	=12	=12
2G	1d	4e]	2b-y
.	.	4d	.
2F	.	1d	2.a
1E	1G	.	.
.	.	.	4g
.	.	2c#i	[2g
=13	=13	=13	=13
1D	1A	1d	2g]
.	.	.	2f#i
1d	1G	1B-y	[1g
=14	=14	=14	=14
2c	2r	0r	1g]
2B-y	2d	.	.
1A	1f	.	1r
=15	=15	=15	=15
2G	1g	0r	0r
2G	.	.	.
1B-y	1d	.	.
=16	=16	=16	=16
1c	2c	1r	1g
.	2.e	.	.
2B-y	.	2r	1b-y
.	4d	.	.
2G	[2d	2d	.
=17	=17	=17	=17
1A	2d]	1f	1cc
.	2c	.	.
1G	[1d	1g	2b-y
.	.	.	2g
=18	=18	=18	=18
2r	1d]	2d	0a
2D	.	2.f	.
1F	1r	.	.
.	.	4e	.
.	.	4d	.
.	.	4c	.
=19	=19	=19	=19
1G	0r	4B-y	2g
.	.	4A	.
.	.	2B-y	2d
2F	.	2A	1f
2D	.	[2d	.
=20	=20	=20	=20
1E	0r	2d]	1g
.	.	2c	.
[1D	.	2d	2f
.	.	[2f	[2d
=21	=21	=21	=21
1D]	2r	4f]	4d]
.	.	4g	4e
.	1d	4a	4f
.	.	4f	4d
1r	.	1g	1e
.	2c	.	.
=22	=22	=22	=22
0r	1d	2f	1d
.	.	1a	.
.	2c	.	1r
.	2B-y	2g	.
=23	=23	=23	=23
1r	4A	1a	0r
.	4G	.	.
.	4A	.	.
.	4B-y	.	.
2r	2c	2g	.
[2d	2d	2f	.
=24	=24	=24	=24
2d]	1A	1e	0r
2c	.	.	.
1d	1f	2d	.
.	.	[2a	.
=25	=25	=25	=25
2c	2e	2a]	2r
2B-y	2d	2g	1dd
1A	1e	1a	.
.	.	.	2cc
=26	=26	=26	=26
2.B-y	1d	2g	1dd
.	.	2f	.
8AL	.	.	.
8B-yJ	.	.	.
2c	1r	2e	2cc
2G	.	[2d	2b-y
=27	=27	=27	=27
1d	1f	4d]	1a
.	.	4e	.
.	.	4f	.
.	.	4d	.
1r	1g	4e	1g
.	.	4f	.
.	.	[2g	.
=28	=28	=28	=28
1B-y	1d	2g]	0r
.	.	2f	.
1c	1e	2a	.
.	.	[2g	.
=29	=29	=29	=29
1G	1d	4g]	1b-y
.	.	4f	.
.	.	2g	.
1A	1c	2e	1cc
.	.	[2f	.
=30	=30	=30	=30
1G	1r	2f]	1g
.	.	2e	.
2F	1A	1f	1a
2F	.	.	.
=31	=31	=31	=31
1G	1B-y	2d	1g
.	.	2.e	.
1D	1A	.	1f
.	.	4d	.
.	.	[2d	.
=32	=32	=32	=32
1E-X	1G	2d]	1r
.	.	2c	.
1D	1B-y	1d	2.f
.	.	.	4g
=33	=33	=33	=33
1C	1c	2e	4a
.	.	.	4b-y
.	.	2.g	1cc
1E	1G	.	.
.	.	4f	.
.	.	4e	2cc
.	.	4d	.
=34	=34	=34	=34
1F	1A	2c	2a
.	.	1d	2f
1E	1G	.	2.g
.	.	2c#i	.
.	.	.	4a
=35	=35	=35	=35
[0D	1F	0d	2b-y
.	.	.	2.a
.	1A	.	.
.	.	.	4g
.	.	.	4f
.	.	.	4e
=36	=36	=36	=36
0D]	1B-y	2r	1d
.	.	2d	.
.	1A	1f	2r
.	.	.	2a
=37	=37	=37	=37
1r	1G	1g	2.b-y
.	.	.	4a
1G	1r	1d	4b-y
.	.	.	4cc
.	.	.	[2dd
=38	=38	=38	=38
1B-y	1d	0r	2dd]
.	.	.	4cc
.	.	.	4b-y
1A	1f	.	1cc
=39	=39	=39	=39
2G	1g	0r	1b-y
1B-y	.	.	.
.	2d	.	1r
2A	2f	.	.
=40	=40	=40	=40
2G	2e	1r	0r
2F	1d	.	.
1E	.	1g	.
.	2c#i	.	.
=41	=41	=41	=41
0D	0d	1b-y	1dd
.	.	1a	1ff
=42	=42	=42	=42
0r	0r	2g	1gg
.	.	1b-y	.
.	.	.	2dd
.	.	2a	2ff
=43	=43	=43	=43
2r	0r	2g	2ee
2F	.	2f	1dd
2G	.	1e	.
2A	.	.	2cc#i
=44	=44	=44	=44
2D	1d	1d	1dd
2D	.	.	.
2E	1c	1r	1r
2F	.	.	.
=45	=45	=45	=45
4BB-y	1.d	0r	0r
4C	.	.	.
4D	.	.	.
4E	.	.	.
4F	.	.	.
4G	.	.	.
[2A	2c	.	.
=46	=46	=46	=46
4A]	1B-y	2r	0r
4G	.	.	.
1G	.	2d	.
.	1A	2e	.
2F#i	.	2f	.
=47	=47	=47	=47
1G	1G	2B-y	1dd
.	.	2d	.
1r	1r	2e	1cc
.	.	2f	.
=48	=48	=48	=48
0r	0f	4B-y	1.dd
.	.	4c	.
.	.	4d	.
.	.	4e	.
.	.	4f	.
.	.	4g	.
.	.	[2a	2cc
=49	=49	=49	=49
0r	1g	4a]	1b-y
.	.	4g	.
.	.	1g	.
.	1d	.	1a
.	.	2f#i	.
=50	=50	=50	=50
2r	1e	1g	1g
2c	.	.	.
2B-y	1d	2r	1b-y
2G	.	2g	.
=51	=51	=51	=51
2.A	1c	2e	1cc
.	.	2c	.
4B-y	.	.	.
1c	1e	2r	1g
.	.	2c	.
=52	=52	=52	=52
1F	1f	2A	1a
.	.	2F	.
1r	1e	2.c	1g
.	.	4B-y	.
=53	=53	=53	=53
1D	1d	2A	2f
.	.	1d	2a
2G	2r	.	2b-y
2F	2A	2f	[2a
=54	=54	=54	=54
1G	1B-y	2e	4a]
.	.	.	4g
.	.	2.d	1g
1D	1A	.	.
.	.	4c	.
.	.	8dL	2f#i
.	.	8c	.
.	.	8B-y	.
.	.	8AJ	.
=55	=55	=55	=55
1r	1G	2.B-y	0g
.	.	4c	.
[1G	2r	[1d	.
.	2G	.	.
=56	=56	=56	=56
2G]	1B-y	1d]	2r
2G	.	.	2d
2.F	2c	2r	1f
.	2c	2A	.
8EL	.	.	.
8DJ	.	.	.
=57	=57	=57	=57
2C	1e-X	1c	1g
2c	.	.	.
2.B-y	1d	1d	1b-y
8AL	.	.	.
8GJ	.	.	.
=58	=58	=58	=58
1A	1c	1f	1cc
2.G	1r	1g	2.b-y
4F	.	.	8aL
.	.	.	8gJ
=59	=59	=59	=59
2D	1A	2.f	1a
2F	.	.	.
.	.	8eL	.
.	.	8dJ	.
2C	1c	1e	1g
2c	.	.	.
=60	=60	=60	=60
2.B-y	1d	2d	1r
.	.	2G	.
8AL	.	.	.
8GJ	.	.	.
1A	1f	2c	2r
.	.	2c	2f
=61	=61	=61	=61
2.G	1g	2.B-y	1b-y
4F	.	4c	.
1D	2.f	1d	1a
.	8eL	.	.
.	8dJ	.	.
=62	=62	=62	=62
0r	1e	2r	2.g
.	.	2c	.
.	.	.	4a
.	1d	1f	2b-y
.	.	.	[2a
=63	=63	=63	=63
1c	1r	1e	4a]
.	.	.	4g
.	.	.	1g
2B-y	2r	2.d	.
2A	2F	.	2f#i
.	.	4c	.
=64	=64	=64	=64
1G	1B-y	2d	1g
.	.	2.e	.
2F	1A	.	1r
.	.	4d	.
2D	.	[2d	.
=65	=65	=65	=65
1E	2.G	2d]	1r
.	.	2c#i	.
.	4A	.	.
1D	2B-y	[1dl	2r
.	[2A	.	2f
=66	=66	=66	=66
1r	4A]	0d_	1b-y
.	4G	.	.
.	1G	.	.
1D	.	.	1a
.	2F#i	.	.
=67	=67	=67	=67
2.B-y	1.G	0d_	2.g
4A	.	.	4a
2G	.	.	2b-y
2F	2A	.	[2a
=68	=68	=68	=68
1G	1B-y	0d_	4a]
.	.	.	4g
.	.	.	1g
1D	1A	.	.
.	.	.	2f#i
=	=	=	=
00G	00G	00d]	00g
=||	=||	=||	=||
*M2/1	*M2/1	*M2/1	*M2/1
*met(C|)	*met(C|)	*met(C|)	*met(C|)
!!Section: Secunda pars: Sepulcrum Cristi
!!!OMD: Secunda pars: Sepulcrum Cristi
0r	0r	1r	1b-y
.	.	1g	[1dd
=69	=69	=69	=69
0r	0r	2f	1dd]
.	.	2g	.
.	.	1a	1cc
=70	=70	=70	=70
1r	1B-y	2f	1dd
.	.	2.g	.
1G	[1d	.	2b-y
.	.	4a	.
.	.	2b-y	2g
=71	=71	=71	=71
2F	1d]	2a	2a
2G	.	4g	2b-y
.	.	4f	.
1A	1c	2e	2.cc
.	.	[2f	.
.	.	.	4b-y
=72	=72	=72	=72
2F	1d	4f]	4a
.	.	4e	4g
2.G	.	4d	2.b-y
.	.	4c	.
.	2B-y	2d	.
4F	.	.	4a
4E	[2c	[2e	[2g
4D	.	.	.
=73	=73	=73	=73
2E	4c]	2e]	2g]
.	4B-y	.	.
2E	4A	4d	4f#i
.	4G	4c	4e
1D	2A	1d	1f#i
.	2A	.	.
=74	=74	=74	=74
1r	1G	2B-y	[0g
.	.	2G	.
2r	1r	2c	.
2G	.	2B-y	.
=75	=75	=75	=75
1c	0r	2c	0g_
.	.	2e-i	.
2B-y	.	2d	.
2c	.	[2c	.
=76	=76	=76	=76
1d	1G	2c]	0g_
.	.	2B-y	.
2.c	1c	2.e-i	.
8B-yL	.	8dL	.
8AJ	.	8cJ	.
=77	=77	=77	=77
2G	2B-y	2d	0g]
2C	2c	1c	.
1G	1d	.	.
.	.	2Bni	.
=78	=78	=78	=78
0C	1.c	2.c	2r
.	.	.	2g
.	.	4d	.
.	.	4e	1cc
.	.	4f	.
.	4B-y	[2g	.
.	4A	.	.
=79	=79	=79	=79
2r	2G	4g]	2b-y
.	.	4f	.
1c	2A	4f	2cc
.	.	4e	.
.	1G	1g	1dd
2B-y	.	.	.
=80	=80	=80	=80
2A	2r	2e	2cc
2G	2B-y	2g	2b-y
[1F	2A	2a	2.cc
.	[2c	[2f	.
.	.	.	4b-y
=81	=81	=81	=81
2F]	4c]	4f]	2a
.	4B-y	4e	.
2E	2G	2c	1g
1D	1A	1d	.
.	.	.	2f
=82	=82	=82	=82
1G	1G	2B-y	2g
.	.	1d	2.b-y
2r	1r	.	.
.	.	.	4a
2D	.	4c	[2a
.	.	4B-y	.
=83	=83	=83	=83
1F	1r	1A	4a]
.	.	.	4g
.	.	.	4f
.	.	.	4e
2G	2r	1B-y	[1d
[2B-y	2G	.	.
=84	=84	=84	=84
2B-]	1B-y	1G	1d]
4A	.	.	.
4G	.	.	.
2A	1c	2r	1r
[2F	.	2A	.
=85	=85	=85	=85
4F]	2A	1c	1r
4G	.	.	.
2A	2.F	.	.
[1D	.	2d	2r
.	4E	.	.
.	4F	[2f	2d
.	4G	.	.
=86	=86	=86	=86
1D]	1A	2f]	1f
.	.	4e	.
.	.	4d	.
1r	1G	2e	2g
.	.	[2d	[2b-y
=87	=87	=87	=87
1r	1r	4d]	2b-]
.	.	4G	.
.	.	1g	4a
.	.	.	4g
1D	2r	.	1a
.	2F	2f	.
=88	=88	=88	=88
2.G	2.B-y	2g	1g
.	.	2d	.
4F	4A	.	.
2E	2G	2c	2r
2D	[2A	[2d	2f
=89	=89	=89	=89
2.G	4A]	2d]	2.b-y
.	4G	.	.
.	1G	2B-y	.
4F	.	.	4a
2E	.	2r	2g
2D	2F	[2d	[2a
=90	=90	=90	=90
1E-X	1G	4d]	4a]
.	.	4B-y	4g
.	.	2c	1g
1D	1A	1d	.
.	.	.	2f#i
=91	=91	=91	=91
2E-i	1G	2B-y	0g
2.C	.	2c	.
.	2r	1e-i	.
4D	.	.	.
4E-i	2c	.	.
4F	.	.	.
=92	=92	=92	=92
1G	2B-y	2d	2r
.	2G	2g	2b-y
1r	1B-y	2f	1dd
.	.	2d	.
=93	=93	=93	=93
2r	1A	1e	1cc
2c	.	.	.
2B-y	2r	2d	1dd
2G	2B-y	2g	.
=94	=94	=94	=94
1B-y	1d	2f	1b-y
.	.	2d	.
1A	1c	1e-i	1cc
=95	=95	=95	=95
2D	1d	2d	2a
2.G	.	2B-y	2.b-y
.	2B-y	1d	.
4F	.	.	4a
2D	2F	.	[2a
=96	=96	=96	=96
1E	1G	1c	4a]
.	.	.	4g
.	.	.	1g
2D	1A	1d	.
2D	.	.	2f#i
=97	=97	=97	=97
1G	1G	1B-y	2g
.	.	.	2.b-y
1F	1r	1c	.
.	.	.	4a
.	.	.	[2a
=98	=98	=98	=98
1G	2r	2B-y	4a]
.	.	.	4g
.	2G	4A	1g
.	.	4G	.
1r	1c	1A	.
.	.	.	2f#i
=99	=99	=99	=99
1r	1B-y	2G	1g
.	.	2d	.
1c	[1c	1g	2r
.	.	.	2g
=100	=100	=100	=100
2F	1c]	1f	1cc
2A	.	.	.
1G	1d	1g	1b-y
=101	=101	=101	=101
1F	2.f	1a	1cc
.	4e	.	.
2B-y	4d	2f	2dd
.	4c	.	.
2G	[2d	2g	2b-y
=102	=102	=102	=102
2.A	2d]	2e	1cc
.	2c	2.f	.
4G	.	.	.
2F	1d	.	2a
.	.	4e	.
2G	.	[2d	[2b-y
=103	=103	=103	=103
1E	1G	2d]	4b-]
.	.	.	4a
.	.	2c#i	1g
1D	2A	1d	.
.	[2d	.	2f
=104	=104	=104	=104
1G	4d]	1r	2g
.	4c	.	.
.	4d	.	2b-y
.	4e	.	.
1r	2f	1d	2a
.	[2B-y	.	[2dd
=105	=105	=105	=105
0r	4B-]	1f	4dd]
.	4c	.	4cc
.	2d	.	2a
.	1G	1g	1b-y
=106	=106	=106	=106
1D	0r	1d	0a
1F	.	2c	.
.	.	2A	.
=107	=107	=107	=107
1G	1d	2.B-y	1r
.	.	4c	.
2D	1f	4d	1a
.	.	4e	.
2D	.	4f	.
.	.	4d	.
=108	=108	=108	=108
2C	1g	1e	1cc
2c	.	.	.
4B-y	[1d	[1f	1dd
4A	.	.	.
4B-y	.	.	.
4c	.	.	.
=109	=109	=109	=109
2d	2d]	1f]	1.a
2D	2d	.	.
2.A	2c	2.e	.
.	[2e	.	2a
4B-y	.	4d	.
=110	=110	=110	=110
2c	4e]	2e	2g
.	4d	.	.
2.d	1d	2.f	2.b-y
4c	.	4e	4a
2A	2c	[2e	[2a
=111	=111	=111	=111
1B-y	1d	4e]	2a]
.	.	4d	.
.	.	1d	2g
1A	1e	.	[1a
.	.	2c#i	.
=112	=112	=112	=112
[0D	1d	2d	0a]
.	.	2d	.
.	2r	1f	.
.	2d	.	.
=113	=113	=113	=113
1D]	1f	4d	2r
.	.	4e	.
.	.	4f	2dd
.	.	4g	.
1r	2d	1a	1ff
.	2d	.	.
=114	=114	=114	=114
1D	2.f	2r	2.dd
.	.	2d	.
.	4e	.	4cc
2D	2d	2.f	2b-y
2F	2c	.	[2a
.	.	4e	.
=115	=115	=115	=115
2G	2B-y	2d	4a]
.	.	.	4g
2E	4A	2c#i	1g
.	4G	.	.
1D	1A	[1d	.
.	.	.	2f#i
=116	=116	=116	=116
2r	1G	0d_	0g
2G	.	.	.
2.B-y	2r	.	.
.	2G	.	.
4A	.	.	.
=117	=117	=117	=117
4G	1B-y	1d]	0r
4F	.	.	.
1G	.	.	.
.	2.A	1r	.
2F	.	.	.
.	4B-y	.	.
=118	=118	=118	=118
2E	2c	2r	1r
2D	1d	2d	.
1E	.	1g	2r
.	2c#i	.	2g
=119	=119	=119	=119
0D	1d	2f	1b-y
.	.	2.d	.
.	2r	.	2.a
.	.	4e	.
.	2d	2f	.
.	.	.	4b-y
=120	=120	=120	=120
0r	2c	2e	2cc
.	2B-y	2d	1dd
.	1A	2r	.
.	.	2a	2cc
=121	=121	=121	=121
1d	1G	1b-y	1dd
2c	1r	2a	2r
2B-y	.	[2g	[2dd
=122	=122	=122	=122
1A	1r	2g]	2dd]
.	.	2f	2cc
2G	1d	2g	2b-y
2D	.	[2f	[2a
=123	=123	=123	=123
2F	2c	4f]	4a]
.	.	4e	4g
2G	2B-y	4d	1g
.	.	4c	.
1D	1A	1d	.
.	.	.	2f
=124	=124	=124	=124
0G	1G	2.B-y	2g
.	.	.	1b-y
.	.	4c	.
.	2r	2d	.
.	2d	2G	4a
.	.	.	4g
=125	=125	=125	=125
2r	1f	1d	1a
2D	.	.	.
1E	1g	2.G	[1g
.	.	4A	.
=126	=126	=126	=126
1G	1.d	1B-y	1g]
1D	.	1A	2r
.	2d	.	2a
=127	=127	=127	=127
1A	2c	1r	1cc
.	2.e	.	.
2B-y	.	2r	1dd
.	4d	.	.
2G	[2d	2d	.
=128	=128	=128	=128
1A	2d]	1e	1a
.	2c#i	.	.
1G	1d	1g	[1b-y
=129	=129	=129	=129
0r	0r	2d	2b-]
.	.	2f	2a
.	.	2e	2g
.	.	[2d	2f
=130	=130	=130	=130
2r	1r	4d]	1e
.	.	8c#iL	.
.	.	8BniJ	.
2A	.	2c#i	.
2B-y	2r	1d	1d
2G	2d	.	.
=131	=131	=131	=131
2A	2.f	0r	0r
4D	.	.	.
4E	4e	.	.
4F	2d	.	.
4G	.	.	.
[2A	2c	.	.
=132	=132	=132	=132
4A]	2B-y	0r	1r
4G	.	.	.
1G	4A	.	.
.	4G	.	.
.	1A	.	2r
2F#i	.	.	2a
=133	=133	=133	=133
1G	1G	2r	2b-y
.	.	2d	2g
1r	1r	2.f	2a
.	.	.	4d
.	.	4e	4e
=134	=134	=134	=134
0r	0r	2d	4f
.	.	.	4g
.	.	2c	2.a
.	.	2B-y	.
.	.	.	4g
.	.	4A	[2g
.	.	4G	.
=135	=135	=135	=135
0r	0r	1A	2g]
.	.	.	2f#i
.	.	1G	1g
=	=	=	=
*M3/1	*M3/1	*M3/1	*M3/1
*met(3)	*met(3)	*met(3)	*met(3)
0C	0c	0e	0g
1G	1B-y	1d	1b-y
=136	=136	=136	=136
1F	1c	1f	1a
0E	0G	0g	0cc
=137	=137	=137	=137
0D	0A	0f	0dd
1r	1r	1r	1r
=138	=138	=138	=138
0G	0B-y	0g	0dd
1A	1c	1e	1cc
=139	=139	=139	=139
1B-y	0d	1d	1b-y
0F	.	1.f	1.a
.	1c	.	.
.	.	2e	2g
=140	=140	=140	=140
1G	1B-y	2d	0g
.	.	2c	.
0D	0A	0d	.
.	.	.	1f#i
=	=	=	=
*M2/1	*M2/1	*M2/1	*M2/1
*met(C|)	*met(C|)	*met(C|)	*met(C|)
1r	1G	1d	1g
1C	1r	2r	2r
.	.	2e	2g
=141	=141	=141	=141
2F	1r	2f	2a
2G	.	2d	2b-y
1A	2r	2c	[1cc
.	2F	[2f	.
=142	=142	=142	=142
2F	2A	4f]	2cc]
.	.	4e	.
2G	2B-y	2d	2b-y
4A	1c	2c	2.a
4G	.	.	.
4F	.	[2A	.
4E	.	.	4g
=143	=143	=143	=143
2D	1.d	2A]	2f
2.B-y	.	1G	2g
.	.	.	2b-y
4A	.	.	.
2F	2c	2A	[2a
=144	=144	=144	=144
2G	2B-y	2B-y	4a]
.	.	.	4g
2E	4A	2c	1g
.	4G	.	.
1D	1A	[1d	.
.	.	.	2f#i
=145	=145	=145	=145
[0Gl	[0Gl	2d]	[0gl
.	.	2G	.
.	.	2.B-y	.
.	.	4c	.
=146	=146	=146	=146
00G]	00G]	00dl	00g]
==	==	==	==
*-	*-	*-	*-
!!!system-decoration: [*]
!!!RDF**kern: i = editorial accidental
!!!RDF**kern: l = terminal long
!!!ENC: Benjamin Ory
!!!END: 2022/4/20
!!!EED: Benjamin Ory
!!!EEV: 2022/04/20
!!!YEC: Copyright 2022 Benjamin Ory, All Rights Reserved
!!!ONB: Translated from MusicXML on 2022/04/20
